X:1759
T:The Glories Of Spring
M:C|
L:1/8
N:"collected by F. O'Neill"
B:O'Neill's 1759
R:Hornpipe
Z:"Transcribed by Bob Safranek, rjs@gsp.org"
K:Gm
G,A,|B,4 A,4|G,A,B,C DGGA|BGAF GFDE|GFEFD CA,A,C|
3B,B,B, B,B, 3A,A,A, A,A,|G,A,B,C DGGA|BGAF GFDE|GFDCA, G,2:|
|: DE|FGFD B,DFA|B2 c2 d2 Bc|dcde dBGA|BGAF GFDE|
FGFD B,DFA|B2 c2 d2 Bc|dcde dBGA|BGAF G2     :|
